img/svg/maintenance-8.svg

<svg width="49" height="51" viewBox="0 0 49 51" fill="none" xmlns="http://www.w3.org/2000/svg">
<path d="M18.3406 38.9716C18.3406 35.189 15.2458 32.0942 11.4633 32.0942C7.68073 32.0942 4.58594 35.189 4.58594 38.9716C4.58594 41.0348 5.50291 42.8687 6.87838 44.1296V49.2875C6.87838 49.6314 7.10762 49.9753 7.33687 50.2045C7.68073 50.4338 8.0246 50.5484 8.36846 50.3191L11.4633 49.2875L14.5581 50.3191C14.6727 50.3191 14.7873 50.4338 14.9019 50.4338C15.1312 50.4338 15.3604 50.3191 15.5897 50.2045C15.9335 49.9753 16.0481 49.6314 16.0481 49.2875V44.1296C17.4236 42.8687 18.3406 41.0348 18.3406 38.9716ZM13.7557 47.6828L11.8071 46.9951C11.5779 46.8805 11.3486 46.8805 11.1194 46.9951L9.17082 47.6828V45.3904C9.85855 45.6196 10.6609 45.8489 11.4633 45.8489C12.2656 45.8489 13.068 45.7343 13.7557 45.3904V47.6828ZM11.4633 43.5564C8.94157 43.5564 6.87838 41.4932 6.87838 38.9716C6.87838 36.4499 8.94157 34.3867 11.4633 34.3867C13.9849 34.3867 16.0481 36.4499 16.0481 38.9716C16.0481 41.4932 13.9849 43.5564 11.4633 43.5564Z" fill="white"/>
<path d="M11.4624 41.2641C12.7284 41.2641 13.7548 40.2377 13.7548 38.9716C13.7548 37.7056 12.7284 36.6792 11.4624 36.6792C10.1963 36.6792 9.16992 37.7056 9.16992 38.9716C9.16992 40.2377 10.1963 41.2641 11.4624 41.2641Z" fill="white"/>
<path d="M46.995 21.3197L46.3073 20.632C45.6196 19.9442 44.588 19.4857 43.5564 19.4857C42.5248 19.4857 41.4932 19.9442 40.8054 20.632L36.6791 24.7584V12.6084V11.1183C36.6791 9.62825 36.1059 8.13816 34.9597 7.10657L29.5725 1.71933C28.5409 0.57311 27.1654 0 25.5607 0H24.0706H3.43866C1.49009 0 0 1.49009 0 3.43866V44.7026C0 46.6512 1.49009 48.1413 3.43866 48.1413H4.58488C5.27261 48.1413 5.7311 47.6828 5.7311 46.995C5.7311 46.3073 5.27261 45.8488 4.58488 45.8488H3.43866C2.75093 45.8488 2.29244 45.3903 2.29244 44.7026V3.43866C2.29244 2.75093 2.75093 2.29244 3.43866 2.29244H24.0706C25.3315 2.29244 26.3631 3.32404 26.3631 4.58488V6.87732C26.3631 8.8259 27.8532 10.316 29.8017 10.316H32.0942C33.355 10.316 34.3866 11.3476 34.3866 12.6084V26.3631C34.3866 26.5923 34.5012 26.7069 34.5012 26.9362L27.8532 33.5843C27.7385 33.6989 27.6239 33.9281 27.5093 34.1574L26.5923 38.9715H24.0706C23.3829 38.9715 22.9244 39.43 22.9244 40.1177C22.9244 40.8054 23.3829 41.2639 24.0706 41.2639H27.5093C27.6239 41.2639 27.6239 41.2639 27.7385 41.2639L33.4696 40.1177C33.6989 40.1177 33.9281 40.0031 34.0427 39.7738L46.995 26.8216C47.6828 26.1338 48.1413 25.1022 48.1413 24.0706C48.1413 23.039 47.6828 22.0074 46.995 21.3197ZM29.8017 8.02354C29.114 8.02354 28.6555 7.56505 28.6555 6.87732V4.58488C28.6555 4.35564 28.6555 4.12639 28.5409 3.78253L32.7819 8.02354C32.5527 8.02354 32.3234 8.02354 32.0942 8.02354H29.8017ZM29.3432 36.6791L30.9479 38.2838L28.9994 38.6276L29.3432 36.6791ZM45.3903 25.2168L33.2404 37.3668L30.2602 34.3866L42.4102 22.2367C42.9833 21.6636 44.1295 21.6636 44.7026 22.2367L45.3903 22.9244C45.7342 23.2683 45.8488 23.6121 45.8488 24.0706C45.8488 24.5291 45.7342 24.873 45.3903 25.2168Z" fill="white"/>
<path d="M35.5319 40.1177C34.8442 40.1177 34.3857 40.5762 34.3857 41.2639V44.7026C34.3857 45.3903 33.9272 45.8488 33.2395 45.8488H18.3386C17.6509 45.8488 17.1924 46.3073 17.1924 46.995C17.1924 47.6827 17.6509 48.1412 18.3386 48.1412H33.2395C35.188 48.1412 36.6781 46.6511 36.6781 44.7026V41.2639C36.6781 40.5762 36.2196 40.1177 35.5319 40.1177Z" fill="white"/>
<path d="M4.58594 14.9011C4.58594 15.5888 5.04443 16.0473 5.73216 16.0473H17.1944C17.8821 16.0473 18.3406 15.5888 18.3406 14.9011C18.3406 14.2134 17.8821 13.7549 17.1944 13.7549H5.73216C5.04443 13.7549 4.58594 14.2134 4.58594 14.9011Z" fill="white"/>
<path d="M28.6548 18.3394H14.9001C14.2124 18.3394 13.7539 18.7978 13.7539 19.4856C13.7539 20.1733 14.2124 20.6318 14.9001 20.6318H28.6548C29.3425 20.6318 29.801 20.1733 29.801 19.4856C29.801 18.7978 29.3425 18.3394 28.6548 18.3394Z" fill="white"/>
<path d="M28.6564 13.7549H21.779C21.0913 13.7549 20.6328 14.2134 20.6328 14.9011C20.6328 15.5888 21.0913 16.0473 21.779 16.0473H28.6564C29.3441 16.0473 29.8026 15.5888 29.8026 14.9011C29.8026 14.2134 29.3441 13.7549 28.6564 13.7549Z" fill="white"/>
<path d="M21.7774 9.16992H14.9001C14.2124 9.16992 13.7539 9.62841 13.7539 10.3161C13.7539 11.0039 14.2124 11.4624 14.9001 11.4624H21.7774C22.4652 11.4624 22.9237 11.0039 22.9237 10.3161C22.9237 9.62841 22.4652 9.16992 21.7774 9.16992Z" fill="white"/>
<path d="M5.73216 25.2168H16.0481C16.7359 25.2168 17.1944 24.7583 17.1944 24.0705C17.1944 23.3828 16.7359 22.9243 16.0481 22.9243H5.73216C5.04443 22.9243 4.58594 23.3828 4.58594 24.0705C4.58594 24.7583 5.04443 25.2168 5.73216 25.2168Z" fill="white"/>
<path d="M5.73216 29.8017H10.317C11.0048 29.8017 11.4633 29.3432 11.4633 28.6555C11.4633 27.9678 11.0048 27.5093 10.317 27.5093H5.73216C5.04443 27.5093 4.58594 27.9678 4.58594 28.6555C4.58594 29.3432 5.04443 29.8017 5.73216 29.8017Z" fill="white"/>
<path d="M5.73216 20.6318H10.317C11.0048 20.6318 11.4633 20.1733 11.4633 19.4856C11.4633 18.7978 11.0048 18.3394 10.317 18.3394H5.73216C5.04443 18.3394 4.58594 18.7978 4.58594 19.4856C4.58594 20.1733 5.04443 20.6318 5.73216 20.6318Z" fill="white"/>
<path d="M29.8013 24.0705C29.8013 23.3828 29.3428 22.9243 28.6551 22.9243H20.6316C19.9438 22.9243 19.4854 23.3828 19.4854 24.0705C19.4854 24.7583 19.9438 25.2168 20.6316 25.2168H28.6551C29.3428 25.2168 29.8013 24.7583 29.8013 24.0705Z" fill="white"/>
<path d="M14.9001 27.5093C14.2124 27.5093 13.7539 27.9678 13.7539 28.6555C13.7539 29.3432 14.2124 29.8017 14.9001 29.8017H24.0699C24.7576 29.8017 25.2161 29.3432 25.2161 28.6555C25.2161 27.9678 24.7576 27.5093 24.0699 27.5093H14.9001Z" fill="white"/>
</svg>

<svg width="49" height="51" viewBox="0 0 49 51" fill="none" xmlns="http://www.w3.org/2000/svg"><path d="M18.34 38.972c0-3.783-3.094-6.878-6.877-6.878-3.782 0-6.877 3.095-6.877 6.878 0 2.063.917 3.897 2.292 5.158v5.157c0 .344.23.688.459.918.344.229.688.343 1.031.114l3.095-1.032 3.095 1.032c.115 0 .23.115.344.115.23 0 .458-.115.688-.23.344-.229.458-.573.458-.916V44.13c1.376-1.261 2.293-3.095 2.293-5.158zm-4.584 8.71l-1.949-.687a.73.73 0 00-.688 0l-1.948.688V45.39c.688.23 1.49.459 2.292.459.803 0 1.605-.115 2.293-.459v2.293zm-2.293-4.126a4.598 4.598 0 01-4.585-4.584 4.598 4.598 0 014.585-4.585 4.598 4.598 0 014.585 4.585 4.598 4.598 0 01-4.585 4.584z" fill="#fff"/><path d="M11.462 41.264a2.292 2.292 0 100-4.585 2.292 2.292 0 000 4.585z" fill="#fff"/><path d="M46.995 21.32l-.688-.688a4.002 4.002 0 00-2.75-1.146 4.003 4.003 0 00-2.752 1.146l-4.126 4.126v-13.64c0-1.49-.573-2.98-1.72-4.011l-5.387-5.388C28.542.573 27.166 0 25.562 0H3.439C1.49 0 0 1.49 0 3.439v41.264c0 1.948 1.49 3.438 3.439 3.438h1.146c.688 0 1.146-.458 1.146-1.146s-.458-1.146-1.146-1.146H3.439c-.688 0-1.147-.459-1.147-1.146V3.439c0-.688.459-1.147 1.147-1.147H24.07a2.3 2.3 0 012.292 2.293v2.292c0 1.949 1.49 3.439 3.439 3.439h2.292a2.3 2.3 0 012.293 2.292v13.755c0 .23.114.344.114.573l-6.648 6.648c-.115.115-.23.344-.344.573l-.917 4.815H24.07c-.688 0-1.147.458-1.147 1.146 0 .687.459 1.146 1.147 1.146h3.668l5.73-1.146a.63.63 0 00.574-.344l12.952-12.952a4.003 4.003 0 001.146-2.751 4.002 4.002 0 00-1.146-2.751zM29.802 8.024c-.688 0-1.146-.459-1.146-1.147V4.585c0-.23 0-.459-.115-.802l4.24 4.24h-2.979zm-.459 28.655l1.605 1.605-1.949.344.344-1.949zM45.39 25.217l-12.15 12.15-2.98-2.98 12.15-12.15c.573-.573 1.72-.573 2.293 0l.687.687c.344.344.459.688.459 1.147 0 .458-.115.802-.459 1.146zm-9.858 14.901c-.688 0-1.146.458-1.146 1.146v3.439c0 .687-.459 1.146-1.147 1.146h-14.9c-.688 0-1.147.458-1.147 1.146s.459 1.146 1.147 1.146h14.9c1.949 0 3.44-1.49 3.44-3.438v-3.44c0-.687-.46-1.145-1.147-1.145z" fill="#fff"/><path d="M4.586 14.901c0 .688.458 1.146 1.146 1.146h11.462c.688 0 1.147-.458 1.147-1.146s-.459-1.146-1.147-1.146H5.732c-.688 0-1.146.458-1.146 1.146zm24.069 3.439H14.9c-.688 0-1.146.458-1.146 1.146 0 .687.458 1.146 1.146 1.146h13.755c.688 0 1.146-.459 1.146-1.146 0-.688-.458-1.147-1.146-1.147zm.001-4.585H21.78c-.688 0-1.146.458-1.146 1.146s.458 1.146 1.146 1.146h6.877c.688 0 1.147-.458 1.147-1.146s-.459-1.146-1.147-1.146zM21.777 9.17H14.9c-.688 0-1.146.458-1.146 1.146s.458 1.146 1.146 1.146h6.877c.688 0 1.147-.458 1.147-1.146s-.459-1.146-1.147-1.146zM5.732 25.217h10.316c.688 0 1.146-.459 1.146-1.146 0-.688-.458-1.147-1.146-1.147H5.732c-.688 0-1.146.459-1.146 1.146 0 .688.458 1.147 1.146 1.147zm0 4.585h4.585c.688 0 1.146-.459 1.146-1.146 0-.688-.458-1.147-1.146-1.147H5.732c-.688 0-1.146.459-1.146 1.146 0 .688.458 1.147 1.146 1.147zm0-9.17h4.585c.688 0 1.146-.459 1.146-1.146 0-.688-.458-1.147-1.146-1.147H5.732c-.688 0-1.146.459-1.146 1.147 0 .687.458 1.146 1.146 1.146zm24.069 3.438c0-.687-.458-1.146-1.146-1.146h-8.023c-.688 0-1.147.459-1.147 1.146 0 .688.459 1.147 1.147 1.147h8.023c.688 0 1.146-.459 1.146-1.146zM14.9 27.51c-.688 0-1.146.458-1.146 1.145 0 .688.458 1.147 1.146 1.147h9.17c.688 0 1.146-.459 1.146-1.146 0-.688-.458-1.147-1.146-1.147H14.9z" fill="#fff"/></svg>
